X: 8666
T: Crosses Of Annagh, The
R: reel
M: 4/4
K: Adorian
|:EAAG A2(3Bcd|eggd edBA|G3B AEGE|DGBG AGED|
EAAG A2(3Bcd|g3d edBA|GA (3Bcd gedB|1 GABG A3G:|2 GABG A2 (3Bcd||
|:eg g2 a2ga|bgab gedB|d3e g3a|bgaf gefd|
eg g2 a2ga|bgab gedB|GA (3Bcd gedB|1 GABG A2 (3Bcd:|2 GABG A3G||

